X:549
T:Inimitable
S:Donna Hind's notebooks
N:cf "Kitty Sharp's Champion Jig"
Z:Nigel Gatherer
M:2/4
L:1/16
K:G
D2 | G2D2 E2DC | B,DGB d2^cd | edcB cBAG | FGAB cDEF |
     G2D2 E2DC | B,DGB d2^cd | edcB cBAG | FGAB G2  :|
D2 | Bdze dBAG | Bdzd  b2g2  | Bdze dBAG | FGAB c4   |
     Bdze dBAG | Bdzd  b2g2  | Bdze dBAG | FGAB G2  :|
<end>
<start>
